symbols/web/memory/materialsymbolsrounded/memory_wght600_20px.svg

<svg xmlns="http://www.w3.org/2000/svg" height="20" width="20"><path d="M8.438 12.562q-.396 0-.698-.302-.302-.302-.302-.698V8.438q0-.396.302-.698.302-.302.698-.302h3.124q.396 0 .698.302.302.302.302.698v3.124q0 .396-.302.698-.302.302-.698.302Zm-.23 5.521q-.396 0-.687-.291-.292-.292-.292-.688v-.896H6.083q-.958 0-1.625-.666-.666-.667-.666-1.625v-1.146h-.896q-.396 0-.688-.292-.291-.291-.291-.687 0-.375.291-.657.292-.281.688-.281h.896V9.146h-.896q-.396 0-.688-.281-.291-.282-.291-.657 0-.396.291-.687.292-.292.688-.292h.896V6.083q0-.958.666-1.625.667-.666 1.625-.666h1.146v-.896q0-.396.292-.688.291-.291.687-.291.375 0 .657.291.281.292.281.688v.896h1.708v-.896q0-.396.281-.688.282-.291.657-.291.396 0 .687.291.292.292.292.688v.896h1.146q.958 0 1.625.666.666.667.666 1.625v1.146h.896q.396 0 .688.292.291.291.291.687 0 .375-.291.657-.292.281-.688.281h-.896v1.708h.896q.396 0 .688.281.291.282.291.657 0 .396-.291.687-.292.292-.688.292h-.896v1.146q0 .958-.666 1.625-.667.666-1.625.666h-1.146v.896q0 .396-.292.688-.291.291-.687.291-.375 0-.657-.291-.281-.292-.281-.688v-.896H9.146v.896q0 .396-.281.688-.282.291-.657.291Zm-2.125-4.166h7.834V6.083H6.083v7.834Zm3.105-3.105h1.624V9.188H9.188ZM10 10Z"/></svg>

<svg xmlns="http://www.w3.org/2000/svg" height="20" width="20"><path d="M8.438 12.562Q8.042 12.562 7.74 12.26Q7.438 11.958 7.438 11.562V8.438Q7.438 8.042 7.74 7.74Q8.042 7.438 8.438 7.438H11.562Q11.958 7.438 12.26 7.74Q12.562 8.042 12.562 8.438V11.562Q12.562 11.958 12.26 12.26Q11.958 12.562 11.562 12.562ZM8.208 18.083Q7.812 18.083 7.521 17.792Q7.229 17.5 7.229 17.104V16.208H6.083Q5.125 16.208 4.458 15.542Q3.792 14.875 3.792 13.917V12.771H2.896Q2.5 12.771 2.208 12.479Q1.917 12.188 1.917 11.792Q1.917 11.417 2.208 11.135Q2.5 10.854 2.896 10.854H3.792V9.146H2.896Q2.5 9.146 2.208 8.865Q1.917 8.583 1.917 8.208Q1.917 7.812 2.208 7.521Q2.5 7.229 2.896 7.229H3.792V6.083Q3.792 5.125 4.458 4.458Q5.125 3.792 6.083 3.792H7.229V2.896Q7.229 2.5 7.521 2.208Q7.812 1.917 8.208 1.917Q8.583 1.917 8.865 2.208Q9.146 2.5 9.146 2.896V3.792H10.854V2.896Q10.854 2.5 11.135 2.208Q11.417 1.917 11.792 1.917Q12.188 1.917 12.479 2.208Q12.771 2.5 12.771 2.896V3.792H13.917Q14.875 3.792 15.542 4.458Q16.208 5.125 16.208 6.083V7.229H17.104Q17.5 7.229 17.792 7.521Q18.083 7.812 18.083 8.208Q18.083 8.583 17.792 8.865Q17.5 9.146 17.104 9.146H16.208V10.854H17.104Q17.5 10.854 17.792 11.135Q18.083 11.417 18.083 11.792Q18.083 12.188 17.792 12.479Q17.5 12.771 17.104 12.771H16.208V13.917Q16.208 14.875 15.542 15.542Q14.875 16.208 13.917 16.208H12.771V17.104Q12.771 17.5 12.479 17.792Q12.188 18.083 11.792 18.083Q11.417 18.083 11.135 17.792Q10.854 17.5 10.854 17.104V16.208H9.146V17.104Q9.146 17.5 8.865 17.792Q8.583 18.083 8.208 18.083ZM6.083 13.917H13.917Q13.917 13.917 13.917 13.917Q13.917 13.917 13.917 13.917V6.083Q13.917 6.083 13.917 6.083Q13.917 6.083 13.917 6.083H6.083Q6.083 6.083 6.083 6.083Q6.083 6.083 6.083 6.083V13.917Q6.083 13.917 6.083 13.917Q6.083 13.917 6.083 13.917ZM9.188 10.812H10.812V9.188H9.188ZM10 10Z"/></svg>
